X:1060
T:Ballance a straw
M:4/4
L:1/8
K:G
GA|B2BB BdcB|A2AAA2Bc|d2cBc2BA|G2GGG2:|!
gf|e2ddd2GA|B2BBB2gf|e2ddd2cB|AGFED2GA|B2BB BdcB|A2AAA2Bc|d2cBc2BA|G2GGG
2:|


